resources/svg/mood-laugh-o.svg

<svg width="15" height="15" viewBox="0 0 15 15" fill="none" xmlns="http://www.w3.org/2000/svg">
<path d="M4.5 7.5V7C4.36739 7 4.24021 7.05268 4.14645 7.14645C4.05268 7.24021 4 7.36739 4 7.5H4.5ZM10.5 7.5H11C11 7.36739 10.9473 7.24021 10.8536 7.14645C10.7598 7.05268 10.6326 7 10.5 7V7.5ZM10.5 7H4.5V8H10.5V7ZM7.5 11C9.47066 11 11 9.47066 11 7.5H10C10 8.91838 8.91838 10 7.5 10V11ZM4 7.5C4 9.47066 5.52934 11 7.5 11V10C6.08162 10 5 8.91838 5 7.5H4ZM7.5 14C3.91015 14 1 11.0899 1 7.5H0C0 11.6421 3.35786 15 7.5 15V14ZM14 7.5C14 11.0899 11.0899 14 7.5 14V15C11.6421 15 15 11.6421 15 7.5H14ZM7.5 1C11.0899 1 14 3.91015 14 7.5H15C15 3.35786 11.6421 0 7.5 0V1ZM7.5 0C3.35786 0 0 3.35786 0 7.5H1C1 3.91015 3.91015 1 7.5 1V0ZM4 6H5V5H4V6ZM10 6H11V5H10V6Z" fill="black"/>
</svg>

<svg viewBox="0 0 15 15" fill="none" xmlns="http://www.w3.org/2000/svg" fill="currentColor"><path d="M4.5 7.5V7a.5.5 0 00-.5.5h.5zm6 0h.5a.5.5 0 00-.5-.5v.5zm0-.5h-6v1h6V7zm-3 4C9.47 11 11 9.47 11 7.5h-1C10 8.918 8.918 10 7.5 10v1zM4 7.5C4 9.47 5.53 11 7.5 11v-1C6.082 10 5 8.918 5 7.5H4zM7.5 14A6.5 6.5 0 011 7.5H0A7.5 7.5 0 007.5 15v-1zM14 7.5A6.5 6.5 0 017.5 14v1A7.5 7.5 0 0015 7.5h-1zM7.5 1A6.5 6.5 0 0114 7.5h1A7.5 7.5 0 007.5 0v1zm0-1A7.5 7.5 0 000 7.5h1A6.5 6.5 0 017.5 1V0zM4 6h1V5H4v1zm6 0h1V5h-1v1z" fill="currentColor"/></svg>
